img/icons/settings-page-icon.svg

<svg width="16" height="16" viewBox="0 0 16 16" fill="none" xmlns="http://www.w3.org/2000/svg">
<path d="M15.3333 12.6667H13.558C13.2693 11.706 12.3867 11 11.3333 11C10.28 11 9.398 11.706 9.10869 12.6667H0.666656C0.298656 12.6667 0 12.9653 0 13.3333C0 13.7013 0.298656 14 0.666656 14H9.10866C9.39731 14.9607 10.28 15.6667 11.3333 15.6667C12.3866 15.6667 13.2687 14.9607 13.558 14H15.3333C15.702 14 16 13.7013 16 13.3333C16 12.9653 15.702 12.6667 15.3333 12.6667ZM11.3333 14.3333C10.782 14.3333 10.3333 13.8847 10.3333 13.3333C10.3333 12.782 10.782 12.3333 11.3333 12.3333C11.8847 12.3333 12.3333 12.782 12.3333 13.3333C12.3333 13.8847 11.8847 14.3333 11.3333 14.3333Z" fill="#0F1435"/>
<path d="M15.3333 2.00015H13.558C13.2687 1.0395 12.3867 0.333496 11.3333 0.333496C10.28 0.333496 9.398 1.0395 9.10866 2.00015H0.666656C0.298656 2.00015 0 2.29881 0 2.66681C0 3.03481 0.298656 3.33346 0.666656 3.33346H9.10866C9.398 4.29415 10.28 5.00015 11.3333 5.00015C12.3867 5.00015 13.2687 4.29415 13.558 3.3335H15.3333C15.702 3.3335 16 3.03484 16 2.66684C16 2.29884 15.702 2.00015 15.3333 2.00015ZM11.3333 3.66681C10.782 3.66681 10.3333 3.21815 10.3333 2.66681C10.3333 2.11546 10.782 1.66681 11.3333 1.66681C11.8847 1.66681 12.3333 2.11546 12.3333 2.66681C12.3333 3.21815 11.8847 3.66681 11.3333 3.66681Z" fill="#0F1435"/>
<path d="M15.3333 7.33317H6.89134C6.602 6.37251 5.72 5.6665 4.66669 5.6665C3.61337 5.6665 2.73134 6.37251 2.44203 7.33317H0.666656C0.298656 7.33317 0 7.63182 0 7.99982C0 8.36783 0.298656 8.66648 0.666656 8.66648H2.442C2.73134 9.62714 3.61334 10.3331 4.66666 10.3331C5.71997 10.3331 6.602 9.62714 6.89131 8.66648H15.3333C15.702 8.66648 16 8.36783 16 7.99982C16 7.63182 15.702 7.33317 15.3333 7.33317ZM4.66666 8.99983C4.11531 8.99983 3.66666 8.55117 3.66666 7.99982C3.66666 7.44848 4.11531 6.99982 4.66666 6.99982C5.218 6.99982 5.66666 7.44848 5.66666 7.99982C5.66666 8.55117 5.218 8.99983 4.66666 8.99983Z" fill="#0F1435"/>
</svg>

<svg width="16" height="16" fill="none" xmlns="http://www.w3.org/2000/svg"><path d="M15.333 12.667h-1.775A2.329 2.329 0 0011.333 11a2.33 2.33 0 00-2.224 1.667H.667a.667.667 0 000 1.333h8.442a2.329 2.329 0 002.224 1.667A2.33 2.33 0 0013.558 14h1.775a.667.667 0 100-1.333zm-4 1.666a1.001 1.001 0 010-2 1.001 1.001 0 010 2zM15.333 2h-1.775A2.33 2.33 0 0011.333.333 2.33 2.33 0 009.11 2H.667a.667.667 0 000 1.333h8.442A2.33 2.33 0 0011.333 5a2.33 2.33 0 002.225-1.667h1.775a.666.666 0 100-1.333zm-4 1.667a1.001 1.001 0 010-2 1.001 1.001 0 010 2zM15.333 7.333H6.891a2.33 2.33 0 00-2.224-1.667 2.33 2.33 0 00-2.225 1.667H.667a.667.667 0 000 1.333h1.775a2.33 2.33 0 002.225 1.667A2.33 2.33 0 006.89 8.666h8.442a.666.666 0 100-1.333zM4.667 9a1.001 1.001 0 010-2 1.001 1.001 0 010 2z" fill="#0F1435"/></svg>
